static/assets/img/icons/theme/cooking/fork.svg

<svg height="24" viewBox="0 0 24 24" width="24" xmlns="http://www.w3.org/2000/svg"><g fill="none" fill-rule="evenodd"><path d="m0 0h24v24h-24z" opacity="0"/><g fill="#000"><path d="m9.37867966 13.9142136.70710674.7071067c.3905243.3905243.3905243 1.0236893 0 1.4142136l-4.94974743 4.9497475c-.39052429.3905243-1.02368927.3905243-1.41421356 0l-.70710678-.7071068c-.3905243-.3905243-.3905243-1.0236893 0-1.4142136l4.94974746-4.9497474c.3905243-.3905243 1.02368927-.3905243 1.41421357 0z" opacity=".3"/><path d="m15.5606602 2.98959236-3.3133838 4.18861724c-.2475843.31298394-.2214926.76178777.0606926 1.04397294.2821851.28218517.730989.30827691 1.0439729.0606926l4.1886173-3.31338379.9899495.98994949-3.3133838 4.18861726c-.2475843.3129839-.2214926.7617878.0606926 1.0439729.2821851.2821852.730989.3082769 1.0439729.0606926l4.1886172-3.31338377.7071068.70710678-4.2426407 4.24264069c-1.5620971 1.5620972-4.094757 1.5620972-5.6568542 0l-.7071068-.7071068c-1.56209716-1.5620972-1.56209716-4.09475707 0-5.65685423l4.2426407-4.24264069z"/></g></g></svg>

<svg width="24px" height="24px" viewBox="0 0 24 24" version="1.1" xmlns="http://www.w3.org/2000/svg" xmlns:xlink="http://www.w3.org/1999/xlink">
    <title>Icon For Fork</title>
    <g stroke="none" stroke-width="1" fill="none" fill-rule="evenodd">
        <rect opacity="0" x="0" y="0" width="24" height="24"></rect>
        <path d="M9.37867966,13.9142136 L10.0857864,14.6213203 C10.4763107,15.0118446 10.4763107,15.6450096 10.0857864,16.0355339 L5.13603897,20.9852814 C4.74551468,21.3758057 4.1123497,21.3758057 3.72182541,20.9852814 L3.01471863,20.2781746 C2.62419433,19.8876503 2.62419433,19.2544853 3.01471863,18.863961 L7.96446609,13.9142136 C8.35499039,13.5236893 8.98815536,13.5236893 9.37867966,13.9142136 Z" fill="#000000" opacity="0.3"></path>
        <path d="M15.5606602,2.98959236 L12.2472764,7.1782096 C11.9996921,7.49119354 12.0257838,7.93999737 12.307969,8.22218254 C12.5901541,8.50436771 13.038958,8.53045945 13.3519419,8.28287514 L17.5405592,4.96949135 L18.5305087,5.95944084 L15.2171249,10.1480581 C14.9695406,10.461042 14.9956323,10.9098459 15.2778175,11.192031 C15.5600026,11.4742162 16.0088065,11.5003079 16.3217904,11.2527236 L20.5104076,7.93933983 L21.2175144,8.64644661 L16.9748737,12.8890873 C15.4127766,14.4511845 12.8801167,14.4511845 11.3180195,12.8890873 L10.6109127,12.1819805 C9.04881554,10.6198833 9.04881554,8.08722343 10.6109127,6.52512627 L14.8535534,2.28248558 L15.5606602,2.98959236 Z" fill="#000000"></path>
    </g>
</svg>
